public/static/img/crypto1/BCH.svg

<svg width="32" height="32" viewBox="0 0 32 32" fill="none" xmlns="http://www.w3.org/2000/svg">
<g clip-path="url(#clip0_696_7401)">
<path d="M31.9522 15.9996C31.9522 24.7933 24.8237 31.9215 16.0302 31.9215C7.23653 31.9215 0.108276 24.7933 0.108276 15.9996C0.108276 7.20605 7.23653 0.0776367 16.0302 0.0776367C24.8237 0.0776367 31.9522 7.20605 31.9522 15.9996Z" fill="#8AC072"/>
<path d="M21.9203 16.3971C22.0269 16.6007 22.0921 16.8235 22.1121 17.0525C22.132 17.2814 22.1063 17.5121 22.0365 17.7311C21.968 17.9505 21.8566 18.1542 21.7087 18.3302C21.5609 18.5063 21.3796 18.6512 21.1753 18.7566L17.0249 20.9153L15.4104 17.811L19.5608 15.6523C20.4166 15.2073 21.4751 15.5413 21.9204 16.3971M18.227 10.407C18.4464 10.4756 18.65 10.5871 18.826 10.7349C19.0021 10.8827 19.147 11.064 19.2525 11.2682C19.6975 12.1239 19.363 13.1825 18.508 13.6277H18.5077L14.3573 15.7864L12.7425 12.6821L16.8934 10.5232C17.097 10.4167 17.3196 10.3516 17.5486 10.3316C17.7775 10.3117 18.0081 10.3373 18.227 10.407ZM18.9142 8.23094C17.8872 7.90677 16.7953 8.00183 15.84 8.49875L15.291 8.78439L13.9485 6.20312L11.9757 7.22898L13.3184 9.81024L11.6345 10.6861L10.2918 8.10468L9.81942 8.35052L7.90513 9.34612L9.19926 11.8344L6.8667 13.0476L8.01642 15.2586L10.3493 14.0453L14.5347 22.0923L12.2018 23.3055L13.3519 25.5164L15.6846 24.3032L16.7768 26.4033L17.2494 26.1576L19.1635 25.1619L18.0227 22.9686L19.7108 22.0907L20.8516 24.2841L22.8163 23.2622L21.6754 21.0688L22.2283 20.7813C22.5759 20.6009 22.8956 20.371 23.1773 20.099C23.657 19.6337 24.0128 19.0559 24.2125 18.4181C24.5369 17.3912 24.4418 16.2995 23.9447 15.3441C23.422 14.3391 22.5315 13.6485 21.5236 13.3465C21.8556 12.3474 21.8002 11.2208 21.2772 10.2151C20.7804 9.25966 19.9408 8.55511 18.9144 8.23094" fill="white"/>
</g>
<defs>
<clipPath id="clip0_696_7401">
<rect width="32" height="32" fill="white"/>
</clipPath>
</defs>
</svg>

<svg width="32" height="32" fill="none" xmlns="http://www.w3.org/2000/svg"><g clip-path="url(#a)"><path d="M31.952 16c0 8.793-7.128 15.922-15.922 15.922C7.237 31.922.108 24.793.108 16 .108 7.206 7.237.078 16.03.078 24.824.078 31.952 7.206 31.952 16Z" fill="#8AC072"/><path d="M21.92 16.397a1.74 1.74 0 0 1 .116 1.334 1.735 1.735 0 0 1-.86 1.026l-4.151 2.158-1.615-3.104 4.15-2.159a1.752 1.752 0 0 1 2.36.745m-3.693-5.99a1.738 1.738 0 0 1 1.026.861c.445.856.11 1.914-.745 2.36l-4.15 2.158-1.616-3.104 4.151-2.159a1.74 1.74 0 0 1 1.334-.116Zm.687-2.176a4.006 4.006 0 0 0-3.074.268l-.549.285-1.343-2.58-1.972 1.025 1.342 2.581-1.684.876-1.342-2.581-.473.246-1.914.995L9.2 11.834l-2.332 1.214 1.15 2.21 2.332-1.213 4.186 8.047-2.333 1.213 1.15 2.211 2.333-1.213 1.092 2.1.472-.245 1.915-.996-1.141-2.193 1.688-.878 1.14 2.193 1.965-1.022-1.14-2.193.552-.288a4.012 4.012 0 0 0 1.984-2.363 4.003 4.003 0 0 0-.267-3.074 4.017 4.017 0 0 0-2.421-1.997 4.02 4.02 0 0 0-.247-3.132 4.006 4.006 0 0 0-2.363-1.984" fill="#fff"/></g><defs><clipPath id="a"><path fill="#fff" d="M0 0h32v32H0z"/></clipPath></defs></svg>
